packages/icons/raw/imported/NotificationsQuestionMark.svg

<svg width="32" height="32" viewBox="0 0 32 32" fill="none" xmlns="http://www.w3.org/2000/svg">
<path d="M18.0728 15.0489L18.4242 15.4047L18.0728 15.0489ZM12.5769 13.0247C12.5769 13.3008 12.8008 13.5247 13.0769 13.5247C13.3531 13.5247 13.5769 13.3008 13.5769 13.0247H12.5769ZM15.5 18.1923C15.5 18.4684 15.7239 18.6923 16 18.6923C16.2761 18.6923 16.5 18.4684 16.5 18.1923H15.5ZM16.5 21.1154C16.5 20.8392 16.2761 20.6154 16 20.6154C15.7239 20.6154 15.5 20.8392 15.5 21.1154H16.5ZM15.5 21.4807C15.5 21.7569 15.7239 21.9807 16 21.9807C16.2761 21.9807 16.5 21.7569 16.5 21.4807H15.5ZM18.4231 13.0247C18.4231 13.6742 18.1567 14.2633 17.7214 14.6932L18.4242 15.4047C19.0399 14.7965 19.4231 13.9549 19.4231 13.0247H18.4231ZM13.5769 13.0247C13.5769 11.7238 14.6532 10.6538 16 10.6538V9.65383C14.118 9.65383 12.5769 11.1546 12.5769 13.0247H13.5769ZM16 10.6538C17.3468 10.6538 18.4231 11.7238 18.4231 13.0247H19.4231C19.4231 11.1546 17.882 9.65383 16 9.65383V10.6538ZM17.7214 14.6932C17.2929 15.1165 16.7359 15.6217 16.3049 16.1703C15.8677 16.7265 15.5 17.3976 15.5 18.1923H16.5C16.5 17.7186 16.7174 17.2636 17.0911 16.7882C17.4708 16.305 17.9503 15.8727 18.4242 15.4047L17.7214 14.6932ZM15.5 21.1154V21.4807H16.5V21.1154H15.5ZM25 16C25 20.9706 20.9706 25 16 25V26C21.5228 26 26 21.5228 26 16H25ZM16 25C11.0294 25 7 20.9706 7 16H6C6 21.5228 10.4772 26 16 26V25ZM7 16C7 11.0294 11.0294 7 16 7V6C10.4772 6 6 10.4772 6 16H7ZM16 7C20.9706 7 25 11.0294 25 16H26C26 10.4772 21.5228 6 16 6V7Z" fill="black"/>
</svg>

<svg width="32" height="32" fill="none" xmlns="http://www.w3.org/2000/svg"><path d="m18.073 15.049.351.356-.351-.356Zm-5.496-2.024a.5.5 0 0 0 1 0h-1Zm2.923 5.167a.5.5 0 0 0 1 0h-1Zm1 2.923a.5.5 0 1 0-1 0h1Zm-1 .366a.5.5 0 1 0 1 0h-1Zm2.923-8.456c0 .65-.266 1.238-.702 1.668l.703.712c.616-.608 1-1.45 1-2.38h-1Zm-4.846 0c0-1.301 1.076-2.371 2.423-2.371v-1c-1.882 0-3.423 1.5-3.423 3.37h1ZM16 10.654c1.347 0 2.423 1.07 2.423 2.37h1c0-1.87-1.541-3.37-3.423-3.37v1Zm1.721 4.04c-.428.422-.985.928-1.416 1.476-.437.556-.805 1.228-.805 2.022h1c0-.473.217-.928.591-1.404.38-.483.86-.915 1.333-1.383l-.703-.712ZM15.5 21.114v.366h1v-.366h-1ZM25 16a9 9 0 0 1-9 9v1c5.523 0 10-4.477 10-10h-1Zm-9 9a9 9 0 0 1-9-9H6c0 5.523 4.477 10 10 10v-1Zm-9-9a9 9 0 0 1 9-9V6C10.477 6 6 10.477 6 16h1Zm9-9a9 9 0 0 1 9 9h1c0-5.523-4.477-10-10-10v1Z" fill="#000"/></svg>
